packages/tokens/icons/cloudCoveo/size32Px.svg

<svg viewBox="0 0 32 32" fill="none" xmlns="http://www.w3.org/2000/svg" width="1em" height="1em"><path d="M24.6667 21C27.375 21 29 18.6707 29 16.2C29 13.7293 27.1041 11.6946 24.6666 11.4293C24.6745 7.93025 21.7268 5 18.1667 5C14.9457 5 12.2719 7.3068 11.7564 10.3341C9.182 10.2928 6.86993 12.1143 6.358 14.6017C4.54733 14.5435 3 16.0146 3 17.8C3 19.5673 4.45507 21 6.25 21H7.33333" stroke="currentColor" stroke-linecap="round" stroke-linejoin="round"/><path d="M20.9686 16.0196C19.7637 14.8217 18.2203 14.1486 16.6363 14.0006C16.4468 13.9871 16.3384 14.2159 16.4738 14.3505L19.0055 16.8676C19.0191 16.8811 19.0055 16.908 18.9785 16.8946C18.2474 16.3696 17.4215 16.0735 16.5686 15.9927C16.4332 15.9792 16.3655 16.1408 16.4603 16.235L18.1932 17.9579C18.2068 17.9714 18.1932 17.9983 18.1661 17.9848C17.6923 17.6618 17.1508 17.4734 16.5957 17.4195C16.5009 17.4061 16.4468 17.5272 16.5145 17.581L19.4523 20.5019C19.52 20.5693 19.6283 20.5154 19.6148 20.4212C19.5606 19.8693 19.3711 19.3309 19.0462 18.8598C19.0326 18.8463 19.0597 18.8194 19.0732 18.8329L20.7385 20.4885C20.8332 20.5827 20.9957 20.5019 20.9822 20.3808C20.9145 19.5463 20.6166 18.7117 20.0886 17.9983C20.0751 17.9848 20.1022 17.9579 20.1157 17.9714L22.6474 20.4885C22.7828 20.6231 23.0129 20.5154 22.9994 20.3135C22.8504 18.7521 22.1736 17.2176 20.9686 16.0196ZM11.0314 16.0196C12.2363 14.8217 13.7797 14.1486 15.3637 14.0006C15.5532 13.9871 15.6615 14.2159 15.5261 14.3505L12.9944 16.8676C12.9809 16.8811 12.9944 16.908 13.0215 16.8946C13.7526 16.3696 14.5784 16.0735 15.4314 15.9927C15.5668 15.9792 15.6344 16.1408 15.5397 16.235L13.8067 17.9579C13.7932 17.9714 13.8067 17.9983 13.8338 17.9848C14.3077 17.6618 14.8492 17.4734 15.4043 17.4195C15.4991 17.4061 15.5532 17.5272 15.4855 17.581L12.5477 20.5154C12.48 20.5827 12.3717 20.5289 12.3852 20.4346C12.4393 19.8828 12.6289 19.3444 12.9538 18.8732C12.9674 18.8598 12.9403 18.8329 12.9267 18.8463L11.2615 20.5019C11.1667 20.5962 11.0043 20.5154 11.0178 20.3943C11.099 19.5463 11.3969 18.7117 11.9249 17.9983C11.9384 17.9848 11.9113 17.9579 11.8978 17.9714L9.35257 20.4885C9.21719 20.6231 8.98703 20.5154 9.00057 20.3135C9.1495 18.7521 9.82642 17.2176 11.0314 16.0196ZM11.0314 25.9803C12.2363 27.1783 13.7797 27.8514 15.3637 27.9994C15.5532 28.0129 15.6615 27.784 15.5261 27.6494L12.9944 25.1323C12.9809 25.1189 12.9944 25.0919 13.0215 25.1054C13.7526 25.6304 14.5784 25.9265 15.4314 26.0073C15.5668 26.0207 15.6344 25.8592 15.5397 25.765L13.8067 24.042C13.7932 24.0286 13.8067 24.0017 13.8338 24.0151C14.3077 24.3382 14.8492 24.5266 15.4043 24.5805C15.4991 24.5939 15.5532 24.4728 15.4855 24.4189L12.5477 21.4846C12.48 21.4173 12.3717 21.4711 12.3852 21.5653C12.4393 22.1172 12.6289 22.6556 12.9538 23.1267C12.9674 23.1402 12.9403 23.1671 12.9267 23.1537L11.2615 21.498C11.1667 21.4038 11.0043 21.4846 11.0178 21.6057C11.099 22.4537 11.3969 23.2883 11.9249 24.0017C11.9384 24.0151 11.9113 24.042 11.8978 24.0286L9.35257 21.5115C9.21719 21.3769 8.98703 21.4846 9.00057 21.6865C9.1495 23.2479 9.82642 24.7824 11.0314 25.9803ZM20.9686 25.9803C19.7637 27.1783 18.2203 27.8514 16.6363 27.9994C16.4468 28.0129 16.3384 27.784 16.4738 27.6494L19.0055 25.1323C19.0191 25.1189 19.0055 25.0919 18.9785 25.1054C18.2474 25.6304 17.4215 25.9265 16.5686 26.0073C16.4332 26.0207 16.3655 25.8592 16.4603 25.765L18.1932 24.042C18.2068 24.0286 18.1932 24.0017 18.1661 24.0151C17.6923 24.3382 17.1508 24.5266 16.5957 24.5805C16.5009 24.5939 16.4468 24.4728 16.5145 24.4189L19.4523 21.498C19.52 21.4307 19.6283 21.4846 19.6148 21.5788C19.5606 22.1307 19.3711 22.6691 19.0462 23.1402C19.0326 23.1537 19.0597 23.1806 19.0732 23.1671L20.7385 21.5115C20.8332 21.4173 20.9957 21.498 20.9822 21.6192C20.9145 22.4537 20.6166 23.2883 20.0886 24.0151C20.0751 24.0286 20.1022 24.0555 20.1157 24.042L22.6474 21.5249C22.7828 21.3903 23.0129 21.498 22.9994 21.6999C22.8504 23.2479 22.1736 24.7824 20.9686 25.9803Z" fill="currentColor"/></svg>

<svg xmlns="http://www.w3.org/2000/svg" fill="none" viewBox="0 0 32 32" width="1em" height="1em"><path stroke="currentColor" stroke-linecap="round" stroke-linejoin="round" d="M24.667 21C27.375 21 29 18.67 29 16.2c0-2.47-1.896-4.505-4.333-4.77.007-3.5-2.94-6.43-6.5-6.43-3.221 0-5.895 2.307-6.41 5.334-2.575-.041-4.887 1.78-5.399 4.268C4.548 14.543 3 16.015 3 17.8 3 19.567 4.455 21 6.25 21h1.083"/><path fill="currentColor" d="M20.969 16.02A7.056 7.056 0 0 0 16.636 14c-.19-.013-.298.216-.162.35l2.532 2.518c.013.013 0 .04-.027.027a4.897 4.897 0 0 0-2.41-.902c-.136-.014-.203.148-.109.242l1.733 1.723c.014.013 0 .04-.027.027a3.36 3.36 0 0 0-1.57-.566c-.095-.013-.15.108-.081.162l2.937 2.92a.095.095 0 0 0 .163-.08 3.317 3.317 0 0 0-.569-1.561c-.013-.014.014-.04.027-.027l1.665 1.655c.095.095.258.014.244-.107a4.646 4.646 0 0 0-.893-2.383c-.014-.013.013-.04.027-.027l2.531 2.517c.136.135.366.027.352-.174a6.981 6.981 0 0 0-2.03-4.294Zm-9.938 0A7.056 7.056 0 0 1 15.364 14c.19-.013.297.216.162.35l-2.532 2.518c-.013.013 0 .04.027.027a4.896 4.896 0 0 1 2.41-.902c.136-.014.203.148.109.242l-1.733 1.723c-.014.013 0 .04.027.027a3.361 3.361 0 0 1 1.57-.566c.095-.013.15.108.082.162l-2.938 2.934a.095.095 0 0 1-.163-.08 3.32 3.32 0 0 1 .569-1.562c.013-.013-.014-.04-.027-.027l-1.665 1.656c-.095.094-.258.013-.244-.108a4.787 4.787 0 0 1 .907-2.396c.013-.013-.014-.04-.027-.027l-2.545 2.517c-.136.135-.366.027-.352-.174a6.98 6.98 0 0 1 2.03-4.294Zm0 9.96A7.056 7.056 0 0 0 15.364 28c.19.013.297-.216.162-.35l-2.532-2.518c-.013-.013 0-.04.027-.027a4.896 4.896 0 0 0 2.41.902c.136.014.203-.148.109-.242l-1.733-1.723c-.014-.013 0-.04.027-.027a3.36 3.36 0 0 0 1.57.566c.095.013.15-.108.082-.162l-2.938-2.934a.095.095 0 0 0-.163.08 3.32 3.32 0 0 0 .569 1.562c.013.013-.014.04-.027.027l-1.665-1.656c-.095-.094-.258-.013-.244.108.081.848.379 1.682.907 2.396.013.013-.014.04-.027.027l-2.545-2.517c-.136-.135-.366-.027-.352.174a6.98 6.98 0 0 0 2.03 4.294Zm9.938 0A7.056 7.056 0 0 1 16.636 28c-.19.013-.298-.216-.162-.35l2.532-2.518c.013-.013 0-.04-.027-.027a4.897 4.897 0 0 1-2.41.902c-.136.014-.203-.148-.109-.242l1.733-1.723c.014-.013 0-.04-.027-.027a3.36 3.36 0 0 1-1.57.566c-.095.013-.15-.108-.081-.162l2.937-2.921a.095.095 0 0 1 .163.08 3.317 3.317 0 0 1-.569 1.562c-.013.014.014.04.027.027l1.665-1.655c.095-.095.258-.014.244.107a4.735 4.735 0 0 1-.893 2.396c-.014.014.013.04.027.027l2.531-2.517c.136-.135.366-.027.352.175a6.98 6.98 0 0 1-2.03 4.28Z"/></svg>
